X:166
T:Lucy Campbell
R:Reel
O:Ireland, Scotland
B:Kerr's Third p4- 2 pt. Strathspey
B:Ceol Rince 2 n185
B:The Irish Fiddle book- very close to this vsn... perhaps nicer (because simpler)...
D:Bothy band: Live in concert
D:Round the House
S:Round the House
Z:Transcription, chords:Mike Long
M:C|
L:1/8
K:D
"D"AD~D2 A2dB|"D"ADFA "A"BE~E2|"D"ADFA dffe|"G"dBAF "D"ADD2|\
"D"AD~D2 A2dB|
"D"ADFA "A"BE~E2|"D"DEFA dffe|"G"dBAF "D"AD~D2|]\
"D"dBAB dgfe|"D"dBAd "A"BE~E2|
"D"ADFA "A"defe|"G"dBAF "D"AD~D2|\
"D"dBAB dgfe|"Bm"dB~B2 "G"gB~B2|"D"dBAB "A"defe|"G"dBAF "D"ADD2|]
"D"fa{b}af defg|"D"adfa "G"bgeg|"D"fa{b}af "A"defe|"G"dBAF "D"ADD2|\
"D"fa{b}af defg|
"D"adfa "G"bgef|"G"~g2ge "D"fgfe|"G"dBAF "D"AD~D2|]\
"D"df~f2 dfef|"D"df~f2 "A"afef|
"D"dffe ~f2fe|"G"dBAF "D"ADD2|\
"D"df (3(fef) dfef|"D"df (3(fef) "A"afef|"G"~g2ge "D"fgfe|"G"dBAF "D"ADD2|]
